X:1
T:Der Hölle Rache
T:Der Hölle Rache
T:2nd aria in Die Zauberflöte
T:Mozart
T:https://musescore.com/ericfontainejazz/mozart-der-holle-rache
T:https://musescore.com/ericfontainejazz/mozart-der-holle-rache
C:Mozart
Z:https://musescore.com/ericfontainejazz/mozart-der-holle-rache
L:1/8
M:4/4
K:F
V:1 treble nm="Piano" snm="Pno."
V:1
"Dm" (!//!D4 !//!D4) | z4 z AAA | d3 A ffee | d2 A2 z4 | g4 z2 e^c | a2 d2 z4 | _e4 ^f3 f | %7
 g2 a2 b4- | b2 g2 _e2 d2 | ^c2 z2 z4 | F4 A2 c2 | f4 z2 z c | (ag)(fe) (dc)(BA) | B2 g2 z2 z g | %14
 (ba)(gf) (ed)(cB) | A2 f2 z4 | z2 B2 d2 f2 | b4 a4 | _a3 f a3 f | e4 z2 c2 | f4 g4 | a4 z2 cc | %22
 f3 f g3 g | a4 z2{b} (a/g/a/b/) | .c'.c'.c'.c' .c'.c'.c'.c' | f4 z2{g} (f/e/f/g/) | %26
 .a.a.a.a .a.a.a.a | d4 z2{e} (d/c/d/e/) | .f.f.f.c .g.g.g.c | afac' f'c'd'b | c'fac' f'c'd'b | %31
 c' z z2 f3 f | g4 b4 | c6 (de) | f4 z2{b} (a/g/a/b/) | .c'.c'.c'.c' .c'.c'.c'.c' | %36
 f4 z2{g} (f/e/f/g/) | .a.a.a.a .a.a.a.a | d4 z2{e} (d/c/d/e/) | .f.f.f.c .g.g.g.c | %40
 afac' f'c'd'b | c'fac' f'c'd'b | c'2 z2 f4 | g3 g _a3 a | a4 f4 | c6 (de) | f2 z2 z4 | z8 | z8 | %49
 z8 | z8 | z4 z2 z f | f3 f f3 f | f2 F2 z2 z f | f3 f f3 f | f2 F2 z2 z f | f3 f f3 f | %57
 f2 F2 z2 FF | _e4 c4 | A4 d4 | G2 z2 z2 z g | g2 G2 z2 z g | g2 G2 z2 gg | g2 G2 z2 GG | f4 d4 | %65
 =B4 e4 | A2 z2 z4 | A4 e4 | (3fgf (3aba (3fgf (3ded | (3^cdc (3A=BA (3cdc (3efe | %70
 (3fgf (3aba (3fgf (3ded | (3^cdc (3A=BA (3cdc (3efe | f2 z2 z4 | z .d.f.a .d'.a.b.g | a2 z2 z4 | %75
 z .d.f.a .d'.a.b.g | adfa d'ad'c' | bgc'b afba | geag f2 d2 | _e4 g4 | b2 g2 _e2 d2 | %81
 ^c2 z2 z2 A2 | ^c4 z2 c2 | e4 z2 e2 | g2 e2 ^c2 A2 | B8 | A2 z2 !fermata!z4 | d4 z4 | f4 z4 | %89
 b8- | b8- | b4 g3 _e | ^c2 c2 z4 | f8 | z2 d2 ^c3 d | c4 z4 | z8 | z8 | z8 |] %99

